X: 206
T:Mrs Casey
% Nottingham Music Database
S:Coventry Morris, via EF
Y:AB
M:6/8
K:Em
P:A
B/2A/2|"Em"G2E "D7"EFE|"G"D2B, D2D|"C"EFD E2F|"Am"c3 "B7"B2A|
"Em"G2E "D7"EFE|"G"D2B, D2D|"C"EFG "D7"A2F|"G"G3 G2:|
P:B
D|"G"G2A "D7"B2c|"G"d2e "D7"d3|"G"G2A "D7"B2c|"G7"d3 -d2d|"C"e2c "G"d2B|\
"Am"c2B "D"A2G|
"C"G2F E2D|"C"c3 "B7"B2A|"Em"G2E "D7"EFE|"G"D2B, D2D|"C"EFG "D7"A2F|"G"G3 G2:|


